media/costumes/V-glow.svg

<svg width="72" height="86" xmlns="http://www.w3.org/2000/svg"><path fill="#0CC" d="M71.96 13.2c0 1.65-.3 3.3-.88 4.93-1.58 4.67-5.11 7.97-9.67 9.25-.32 2.11-.91 5.63-2.03 11.87-.03.14-.05.28-.08.42-.96 4.34-2.33 10.95-4.05 19.65-.33 1.97-.75 3.88-1.26 5.67-.4 2.16-.83 4.3-1.28 6.39-.03.15-.07.31-.11.46-1.54 5.89-5.22 10.23-10.36 12.22-.06.02-.11.04-.16.06-2.28.84-4.22 1.23-6.13 1.23-2.62 0-5.07-.76-7.11-2.21-1.69-1.17-3.56-2.71-4.81-5.19-.49-.98-.83-2.03-1.01-3.12-.02-.09-.11-.61-.42-1.87-.29-.83-.99-2.82-2.1-5.96-.07-.21-.14-.43-.2-.64-.34-1.18-.87-2.97-1.59-5.37-.77-2.34-1.51-4.75-2.22-7.17-1.14-3.55-2.81-8.9-5.08-16.3-1.41-.28-2.79-.72-4.11-1.34-.82-.39-1.59-.87-2.3-1.45-3.18-2.6-5-6.44-5-10.54 0-6.09 3.67-11.26 9.36-13.16l.2-.06c3.24-1.01 6.06-1.6 8.59-1.77.74-.16 1.58-.31 2.55-.46.85-.13 1.72-.15 2.57-.08.14-.01.5-.05 1.14-.18 1.79-.36 3.13-.57 4.24-.67.23-.37.48-.73.75-1.07 1.75-2.2 5.06-4.94 10.87-5.55l.26-.03c1.37-.11 3.48-.31 6.33-.59.19-.02.39-.03.59-.04 1.28-.06 3-.12 5.17-.17 1.7-.14 2.79-.23 3.27-.28.45-.05.91-.08 1.37-.08 9.65 0 14.7 6.64 14.7 13.2z"/><path fill="#FFF" d="M60.693 14.517c-.527 1.643-1.759 2.463-3.694 2.463-.411 0-1.231-.058-2.463-.176-.998-.116-1.759-.146-2.287-.088-.118.06-.294.176-.527.352-.176.88-.471 3.05-.88 6.51-.235 1.994-.998 6.567-2.287 13.722-.998 4.516-2.375 11.201-4.134 20.055a41.028 41.028 0 0 1-1.144 5.102 223.063 223.063 0 0 1-1.319 6.598c-.646 2.463-1.877 4.046-3.694 4.75-1.583.585-2.61.703-3.079.352-.763-.527-1.202-.91-1.319-1.144-.118-.703-.352-1.759-.703-3.166-.118-.353-.88-2.521-2.287-6.51-.352-1.231-.91-3.107-1.671-5.63a243.867 243.867 0 0 1-2.199-7.124c-1.174-3.636-2.962-9.382-5.366-17.24-.41-2.053-1.114-4.516-2.11-7.389-2.463.587-4.047.879-4.75.879a6.554 6.554 0 0 1-2.814-.615c-.646-.528-.968-1.201-.968-2.023 0-1.407.615-2.315 1.847-2.727 2.815-.88 5.102-1.319 6.861-1.319.585-.176 1.465-.352 2.639-.528 1.056.118 2.463 0 4.222-.352 1.76-.352 2.932-.527 3.519-.527.88 0 1.672.176 2.375.527.586.528.88 1.203.88 2.023 0 1.466-.704 2.405-2.111 2.814-1.29.06-3.05.439-5.277 1.144.117 2.054.381 3.725.792 5.014.879 2.639 2.11 6.305 3.694 10.995.058.587.204 1.379.439 2.375 1.231 4.692 3.312 11.318 6.245 19.879.352-.819.792-2.429 1.319-4.828.645-3.395 1.056-5.414 1.231-6.059A169.93 169.93 0 0 0 42.4 40.071c1.113-5.853 1.7-8.925 1.76-9.218.761-3.687 1.289-6.643 1.583-8.867.233-1.639.439-3.248.615-4.829-.059-.058-.118-.116-.176-.176-3.988.06-6.157.06-6.509 0-.527 0-1.231-.462-2.111-1.387 0-.058.044-.145.132-.26.089-.115.161-.203.221-.261-.06-.347-.03-.837.088-1.474.645-.808 1.788-1.3 3.431-1.474a424.05 424.05 0 0 0 6.509-.607c1.289-.058 3.048-.115 5.277-.173 2.814-.23 4.163-.347 4.046-.347 2.463 0 3.694.734 3.694 2.199a3.836 3.836 0 0 1-.267 1.32z"/></svg>

<svg version="1.1" width="72" height="86" xmlns="http://www.w3.org/2000/svg" xmlns:xlink="http://www.w3.org/1999/xlink">
  <!-- Exported by Scratch - http://scratch.mit.edu/ -->
  <g id="ID0.1613758858293295">
    <g id="ID0.04199532698839903">
      <g id="ID0.4123793593607843">
        <path id="ID0.6994774197228253" fill="#00CCCC" d="M 71.960 13.200 C 71.960 14.850 71.660 16.500 71.080 18.130 C 69.500 22.800 65.970 26.100 61.410 27.380 C 61.090 29.490 60.500 33.010 59.380 39.250 C 59.350 39.390 59.330 39.530 59.300 39.670 C 58.340 44.010 56.970 50.620 55.250 59.320 C 54.920 61.290 54.500 63.200 53.990 64.990 C 53.590 67.150 53.160 69.290 52.710 71.380 C 52.680 71.530 52.640 71.690 52.600 71.840 C 51.060 77.730 47.380 82.070 42.240 84.060 C 42.180 84.080 42.130 84.100 42.080 84.120 C 39.800 84.960 37.860 85.350 35.950 85.350 C 33.330 85.350 30.880 84.590 28.840 83.140 C 27.150 81.970 25.280 80.430 24.030 77.950 C 23.540 76.970 23.200 75.920 23.020 74.830 C 23 74.740 22.910 74.220 22.600 72.960 C 22.310 72.130 21.610 70.140 20.500 67 C 20.430 66.790 20.360 66.570 20.300 66.360 C 19.960 65.180 19.430 63.390 18.710 60.990 C 17.940 58.650 17.200 56.240 16.490 53.820 C 15.350 50.270 13.680 44.920 11.410 37.520 C 10 37.240 8.620 36.800 7.300 36.180 C 6.480 35.790 5.710 35.310 5 34.730 C 1.820 32.130 0 28.290 0 24.190 C 0 18.100 3.670 12.930 9.360 11.030 C 9.430 11.010 9.490 10.990 9.560 10.970 C 12.800 9.960 15.620 9.370 18.150 9.200 C 18.890 9.040 19.730 8.890 20.700 8.740 C 21.550 8.610 22.420 8.590 23.270 8.660 C 23.410 8.650 23.770 8.610 24.410 8.480 C 26.200 8.120 27.540 7.910 28.650 7.810 C 28.880 7.440 29.130 7.080 29.400 6.740 C 31.150 4.540 34.460 1.800 40.270 1.190 C 40.360 1.180 40.450 1.170 40.530 1.160 C 41.900 1.050 44.010 0.850 46.860 0.570 C 47.050 0.550 47.250 0.540 47.450 0.530 C 48.730 0.470 50.450 0.410 52.620 0.360 C 54.320 0.220 55.410 0.130 55.890 0.080 C 56.340 0.030 56.800 0 57.260 0 C 66.910 0 71.960 6.640 71.960 13.200 Z "/>
      </g>
    </g>
    <g id="ID0.1456912192516029">
      <path id="ID0.9227194082923234" fill="#FFFFFF" d="M 60.693 14.517 C 60.166 16.160 58.934 16.980 56.999 16.980 C 56.588 16.980 55.768 16.922 54.536 16.804 C 53.538 16.688 52.777 16.658 52.249 16.716 C 52.131 16.776 51.955 16.892 51.722 17.068 C 51.546 17.948 51.251 20.118 50.842 23.578 C 50.607 25.572 49.844 30.145 48.555 37.300 C 47.557 41.816 46.180 48.501 44.421 57.355 C 44.127 59.173 43.746 60.874 43.277 62.457 C 42.866 64.686 42.426 66.886 41.958 69.055 C 41.312 71.518 40.081 73.101 38.264 73.805 C 36.681 74.390 35.654 74.508 35.185 74.157 C 34.422 73.630 33.983 73.247 33.866 73.013 C 33.748 72.310 33.514 71.254 33.163 69.847 C 33.045 69.494 32.283 67.326 30.876 63.337 C 30.524 62.106 29.966 60.230 29.205 57.707 C 28.441 55.362 27.709 52.988 27.006 50.583 C 25.832 46.947 24.044 41.201 21.640 33.343 C 21.230 31.290 20.526 28.827 19.530 25.954 C 17.067 26.541 15.483 26.833 14.780 26.833 C 13.782 26.833 12.844 26.629 11.966 26.218 C 11.320 25.690 10.998 25.017 10.998 24.195 C 10.998 22.788 11.613 21.880 12.845 21.468 C 15.660 20.588 17.947 20.149 19.706 20.149 C 20.291 19.973 21.171 19.797 22.345 19.621 C 23.401 19.739 24.808 19.621 26.567 19.269 C 28.327 18.917 29.499 18.742 30.086 18.742 C 30.966 18.742 31.758 18.918 32.461 19.269 C 33.047 19.797 33.341 20.472 33.341 21.292 C 33.341 22.758 32.637 23.697 31.230 24.106 C 29.940 24.166 28.180 24.545 25.953 25.250 C 26.070 27.304 26.334 28.975 26.745 30.264 C 27.624 32.903 28.855 36.569 30.439 41.259 C 30.497 41.846 30.643 42.638 30.878 43.634 C 32.109 48.326 34.190 54.952 37.123 63.513 C 37.475 62.694 37.915 61.084 38.442 58.685 C 39.087 55.290 39.498 53.271 39.673 52.626 C 40.729 48.529 41.637 44.345 42.400 40.071 C 43.513 34.218 44.100 31.146 44.160 30.853 C 44.921 27.166 45.449 24.210 45.743 21.986 C 45.976 20.347 46.182 18.738 46.358 17.157 C 46.299 17.099 46.240 17.041 46.182 16.981 C 42.194 17.041 40.025 17.041 39.673 16.981 C 39.146 16.981 38.442 16.519 37.562 15.594 C 37.562 15.536 37.606 15.449 37.694 15.334 C 37.783 15.219 37.855 15.131 37.915 15.073 C 37.855 14.726 37.885 14.236 38.003 13.599 C 38.648 12.791 39.791 12.299 41.434 12.125 C 42.841 12.010 45.010 11.808 47.943 11.518 C 49.232 11.460 50.991 11.403 53.220 11.345 C 56.034 11.115 57.383 10.998 57.266 10.998 C 59.729 10.998 60.960 11.732 60.960 13.197 C 60.957 13.609 60.869 14.049 60.693 14.517 Z "/>
    </g>
  </g>
</svg>
